public/images/broadcasters/pbs.svg

<svg clip-rule="evenodd" fill-rule="evenodd" stroke-linejoin="round" stroke-miterlimit="2" viewBox="0 0 2013 580" xmlns="http://www.w3.org/2000/svg"><g fill="#fff" transform="scale(4.16667)"><path d="m69.309 1.622h412.952l-19.659 109.887c-2.757 15.636-14.926 25.981-30.561 25.981h-375.867l47.784-26.011c.319-.131.631-.279.933-.445l14.896-8.08c6.428-3.156 11.969-7.959 16.041-13.907 6.095-8.904 8.374-19.743 6.254-29.742-1.949-9.203-7.374-16.953-15.293-21.842l-13.978-8.623c-.319-.256-.656-.494-1.008-.709l-37.709-23.176-5.361-3.308c.197-.004.376-.025.576-.025zm256.052 93.813c2.622 13.113 12.945 22.031 31.549 22.031 19.236 0 34.702-10.19 37.733-27.382 3.324-18.847-10.905-23.56-23.602-27.636-13.054-4.205-14.712-7.004-13.993-11.08.63-3.566 4.356-6.75 10.684-6.75 8.099 0 11.578 3.949 13.494 10.317l18.858-10.062c-4.142-13.118-14.295-20.123-28.849-20.123-15.314 0-31.492 9.935-34.524 27.127-3.01 17.067 8.776 23.434 21.287 27.127 12.636 3.693 17.317 5.858 16.351 11.335-.606 3.438-3.685 7.258-13.301 7.258-10 0-14.567-4.966-16.427-12.352zm-3.391-5.86c1.594-9.042-1.496-15.921-7.337-20.122 5.551-4.204 9.494-10.063 10.797-17.448 2.717-15.409-8.038-25.471-23.478-25.471h-34.677l-15.719 89.148h37.208c15.819 0 30.422-10.316 33.206-26.107zm-19.981-1.529c-.875 4.968-4.795 8.533-9.856 8.533h-16.959l3.01-17.066h16.959c5.061 0 7.722 3.567 6.846 8.533zm-17.833-42.408h14.427c4.682 0 7.138 3.31 6.329 7.896-.808 4.585-4.557 7.894-9.113 7.894h-14.427zm-32.389 11.461c2.987-16.938-8.152-30.565-25.616-30.565h-33.538l-15.72 89.148h20.25l4.941-28.019h13.289c17.464 0 33.408-13.626 36.394-30.564zm-20.248 0c-1.145 6.495-6.576 11.463-12.777 11.463h-13.289l4.041-22.924h13.289c6.201 0 9.882 4.967 8.736 11.461z"/><path d="m120.99 46.088c-.068-.042-.138-.078-.206-.119l.004-.005-14.618-9.019.009-.083-19.505-11.988-17.748-10.91-16.27-10.038-.003.006c-.068-.042-.131-.089-.199-.13-.081-.05-.165-.094-.247-.143-.202-.122-.407-.239-.613-.356-.257-.144-.516-.282-.777-.416-.228-.117-.454-.238-.686-.348-.418-.199-.84-.385-1.265-.558-.263-.107-.53-.203-.796-.301-.235-.086-.471-.17-.708-.249-.277-.093-.556-.183-.838-.266-.272-.08-.546-.151-.82-.221-.436-.112-.876-.213-1.322-.303-.259-.052-.518-.103-.778-.147-.291-.049-.582-.095-.877-.134-.287-.039-.575-.068-.864-.097-.464-.046-.932-.081-1.405-.104-.25-.011-.501-.023-.751-.027-.185-.004-.365-.021-.552-.021-14.813 0-28.081 11.817-30.023 26.534-.058.893.956 1.053 1.611.561 1.458-1.096 2.886-2.441 2.886-2.441l15.584-13.587s1.418-1.234 2.907-1.165c.527-.006 1.07.138 1.565.556 1.846 1.552.086 3.942.086 3.942l-26.849 49.215 54.482-19.467s2.549-1.508 3.89.5-1.058 4.262-1.058 4.262l-15.074 14.155s-1.52 1.251-2.717 2.63c-.151.172-.225.367-.268.571.001.203.034.399.147.571.908 1.379 2.165 2.63 2.165 2.63l12.099 14.156s1.925 2.253.162 4.261c-1.764 2.008-3.996.5-3.996.5l-49.832-17.311 15.837 48.097s1.257 2.391-.915 3.943c-.583.417-1.154.561-1.681.556-1.504.069-2.663-1.166-2.663-1.166l-12.728-13.586s-1.202-1.281-2.373-2.44c-.612-.607-1.519-.527-1.769.591l-.452 4.301h.007c-.01.083-.024.165-.033.248-1.582 15.062 9.343 27.272 24.405 27.272 5.45 0 10.69-1.604 15.239-4.359l37.486-20.403 22.024-11.989.022-.208h.477l14.896-8.08c4.761-2.304 9.068-5.888 12.296-10.603 8.92-13.033 6.232-29.719-6.007-37.27z" fill-rule="nonzero"/></g></svg>

<?xml version="1.0" encoding="UTF-8" standalone="no"?>
<!DOCTYPE svg PUBLIC "-//W3C//DTD SVG 1.1//EN" "http://www.w3.org/Graphics/SVG/1.1/DTD/svg11.dtd">
<svg width="100%" height="100%" viewBox="0 0 2013 580" version="1.1" xmlns="http://www.w3.org/2000/svg" xmlns:xlink="http://www.w3.org/1999/xlink" xml:space="preserve" xmlns:serif="http://www.serif.com/" style="fill-rule:evenodd;clip-rule:evenodd;stroke-linejoin:round;stroke-miterlimit:2;">
    <g transform="matrix(4.16667,0,0,4.16667,0,0)">
        <path d="M69.309,1.622L482.261,1.622L462.602,111.509C459.845,127.145 447.676,137.49 432.041,137.49L56.174,137.49L103.958,111.479C104.277,111.348 104.589,111.2 104.891,111.034L119.787,102.954C126.215,99.798 131.756,94.995 135.828,89.047C141.923,80.143 144.202,69.304 142.082,59.305C140.133,50.102 134.708,42.352 126.789,37.463L112.811,28.84C112.492,28.584 112.155,28.346 111.803,28.131L74.094,4.955L68.733,1.647C68.93,1.643 69.109,1.622 69.309,1.622ZM325.361,95.435C327.983,108.548 338.306,117.466 356.91,117.466C376.146,117.466 391.612,107.276 394.643,90.084C397.967,71.237 383.738,66.524 371.041,62.448C357.987,58.243 356.329,55.444 357.048,51.368C357.678,47.802 361.404,44.618 367.732,44.618C375.831,44.618 379.31,48.567 381.226,54.935L400.084,44.873C395.942,31.755 385.789,24.75 371.235,24.75C355.921,24.75 339.743,34.685 336.711,51.877C333.701,68.944 345.487,75.311 357.998,79.004C370.634,82.697 375.315,84.862 374.349,90.339C373.743,93.777 370.664,97.597 361.048,97.597C351.048,97.597 346.481,92.631 344.621,85.245L325.361,95.435ZM321.97,89.575C323.564,80.533 320.474,73.654 314.633,69.453C320.184,65.249 324.127,59.39 325.43,52.005C328.147,36.596 317.392,26.534 301.952,26.534L267.275,26.534L251.556,115.682L288.764,115.682C304.583,115.682 319.186,105.366 321.97,89.575ZM301.989,88.046C301.114,93.014 297.194,96.579 292.133,96.579L275.174,96.579L278.184,79.513L295.143,79.513C300.204,79.513 302.865,83.08 301.989,88.046ZM284.156,45.638L298.583,45.638C303.265,45.638 305.721,48.948 304.912,53.534C304.104,58.119 300.355,61.428 295.799,61.428L281.372,61.428L284.156,45.638ZM251.767,57.099C254.754,40.161 243.615,26.534 226.151,26.534L192.613,26.534L176.893,115.682L197.143,115.682L202.084,87.663L215.373,87.663C232.837,87.663 248.781,74.037 251.767,57.099ZM231.519,57.099C230.374,63.594 224.943,68.562 218.742,68.562L205.453,68.562L209.494,45.638L222.783,45.638C228.984,45.638 232.665,50.605 231.519,57.099Z" style="fill:white;"/>
        <path d="M120.99,46.088C120.922,46.046 120.852,46.01 120.784,45.969L120.788,45.964L106.17,36.945L106.179,36.862L86.674,24.874L68.926,13.964L52.656,3.926L52.653,3.932C52.585,3.89 52.522,3.843 52.454,3.802C52.373,3.752 52.289,3.708 52.207,3.659C52.005,3.537 51.8,3.42 51.594,3.303C51.337,3.159 51.078,3.021 50.817,2.887C50.589,2.77 50.363,2.649 50.131,2.539C49.713,2.34 49.291,2.154 48.866,1.981C48.603,1.874 48.336,1.778 48.07,1.68C47.835,1.594 47.599,1.51 47.362,1.431C47.085,1.338 46.806,1.248 46.524,1.165C46.252,1.085 45.978,1.014 45.704,0.944C45.268,0.832 44.828,0.731 44.382,0.641C44.123,0.589 43.864,0.538 43.604,0.494C43.313,0.445 43.022,0.399 42.727,0.36C42.44,0.321 42.152,0.292 41.863,0.263C41.399,0.217 40.931,0.182 40.458,0.159C40.208,0.148 39.957,0.136 39.707,0.132C39.522,0.128 39.342,0.111 39.155,0.111C24.342,0.111 11.074,11.928 9.132,26.645C9.074,27.538 10.088,27.698 10.743,27.206C12.201,26.11 13.629,24.765 13.629,24.765L29.213,11.178C29.213,11.178 30.631,9.944 32.12,10.013C32.647,10.007 33.19,10.151 33.685,10.569C35.531,12.121 33.771,14.511 33.771,14.511L6.922,63.726L61.404,44.259C61.404,44.259 63.953,42.751 65.294,44.759C66.635,46.767 64.236,49.021 64.236,49.021L49.162,63.176C49.162,63.176 47.642,64.427 46.445,65.806C46.294,65.978 46.22,66.173 46.177,66.377C46.178,66.58 46.211,66.776 46.324,66.948C47.232,68.327 48.489,69.578 48.489,69.578L60.588,83.734C60.588,83.734 62.513,85.987 60.75,87.995C58.986,90.003 56.754,88.495 56.754,88.495L6.922,71.184L22.759,119.281C22.759,119.281 24.016,121.672 21.844,123.224C21.261,123.641 20.69,123.785 20.163,123.78C18.659,123.849 17.5,122.614 17.5,122.614L4.772,109.028C4.772,109.028 3.57,107.747 2.399,106.588C1.787,105.981 0.88,106.061 0.63,107.179L0.178,111.48L0.185,111.48C0.175,111.563 0.161,111.645 0.152,111.728C-1.43,126.79 9.495,139 24.557,139C30.007,139 35.247,137.396 39.796,134.641L77.282,114.238L99.306,102.249L99.328,102.041L99.805,102.041L114.701,93.961C119.462,91.657 123.769,88.073 126.997,83.358C135.917,70.325 133.229,53.639 120.99,46.088Z" style="fill:white;fill-rule:nonzero;"/>
    </g>
</svg>
